X:1
T:The Trooper's Horse
M:4/4
L:1/4
K:F
 z2 z d3/4 d/4| G G3/4 A/4 =B3/4 B/4 A3/4 G/4| c e d3/4 c/4 _B/2A/2|\
 G G3/4- A/4 B B|(3c3.99999962500005/11.9999985000002c3.99999962500005/11.9999985000002d3.99999962500005/11.9999985000002c3.99999962500005/11.9999985000002d3.99999962500005/11.9999985000002c3.99999962500005/11.9999985000002 B3/4 c/4 d c|\
 d f g g3/4 g/4| d3/4- e/4 d3/4 c/4 B3/4 A/4 G3/4 F/4| G G d2-| d2 z c3/4 d/4|\
 A G G z|

